dist/img/svg/ic_gear.svg

<svg width="22" height="21" viewBox="0 0 22 21"   xmlns="http://www.w3.org/2000/svg">
<g clip-path="url(#clip0)">
<path d="M11.3531 6.1158C8.94245 6.1158 6.9812 8.07704 6.9812 10.4877C6.9812 12.8984 8.94245 14.8597 11.3531 14.8597C13.7636 14.8597 15.7251 12.8984 15.7251 10.4877C15.7251 8.077 13.7636 6.1158 11.3531 6.1158ZM11.3531 13.386C9.75492 13.386 8.45489 12.086 8.45489 10.4877C8.45489 8.88952 9.75492 7.58949 11.3531 7.58949C12.9514 7.58949 14.2514 8.88952 14.2514 10.4877C14.2514 12.086 12.9514 13.386 11.3531 13.386Z"  />
<path d="M20.3095 7.37752L19.261 7.20288L19.8578 6.35377C20.4002 5.63042 20.3184 4.59199 19.6849 3.99857L17.8183 2.13191C17.1804 1.49404 16.1621 1.4248 15.4643 1.95825L14.6332 2.56171L14.4659 1.57041C14.3416 0.660475 13.5902 0 12.6795 0H10.0269C9.13431 0 8.36674 0.662648 8.24394 1.52451L8.06807 2.58017L7.21896 1.98356C6.49537 1.44076 5.45669 1.52254 4.86376 2.15623L2.99714 4.02289C2.35951 4.66028 2.28954 5.67857 2.82078 6.37293L3.43556 7.2311L2.43617 7.39983C1.52591 7.52386 0.865479 8.27494 0.865479 9.18594V11.8386C0.865479 12.7459 1.51365 13.4967 2.38974 13.6212L3.4454 13.7974L2.84879 14.6465C2.30623 15.3698 2.38802 16.4083 3.02146 17.0014L4.88837 18.8683C5.22339 19.2036 5.70282 19.4035 6.17073 19.4035C6.5566 19.4035 6.93017 19.2761 7.2384 19.0447L8.09657 18.4299L8.26531 19.4293C8.3891 20.3395 9.14042 21 10.0514 21H12.7041C13.6111 21 14.3622 20.3516 14.4865 19.476L14.6626 18.4201L15.5038 19.011C15.83 19.2554 16.2019 19.3794 16.6088 19.3794C17.0907 19.3794 17.5463 19.1891 17.8914 18.844L19.7581 16.9773C20.396 16.3399 20.4657 15.3216 19.9271 14.6167L19.2941 13.7652L20.2704 13.6006C21.1807 13.4763 21.8411 12.725 21.8411 11.8143V9.16166C21.8412 8.27252 21.1836 7.50721 20.3095 7.37752ZM20.3672 11.8136C20.3672 11.9848 20.2479 12.1157 20.0479 12.1434L17.8622 12.5118C17.6095 12.5543 17.397 12.7255 17.3012 12.9635C17.2054 13.2015 17.2406 13.472 17.3933 13.678L18.7501 15.5034C18.842 15.6233 18.826 15.8252 18.7162 15.9349L16.8496 17.8016C16.7788 17.8724 16.7024 17.9052 16.6091 17.9052C16.5231 17.9052 16.457 17.8834 16.3696 17.8183L14.5521 16.5411C14.3448 16.395 14.0771 16.367 13.8437 16.4642C13.6104 16.562 13.4431 16.773 13.4016 17.0228L13.0305 19.2502C13.0077 19.4101 12.8704 19.5263 12.7039 19.5263H10.0512C9.88051 19.5263 9.74934 19.4072 9.72186 19.2072L9.35346 17.0213C9.31121 16.7708 9.14272 16.5598 8.90766 16.4628C8.81726 16.4252 8.72173 16.407 8.62691 16.407C8.47535 16.407 8.32479 16.4537 8.1978 16.5446L6.36699 17.8561C6.30189 17.905 6.23582 17.9298 6.17073 17.9298C6.09509 17.9298 5.98726 17.8836 5.93025 17.8264L4.0464 15.9431C3.93907 15.8426 3.93144 15.6564 4.02947 15.5285C4.03562 15.5206 4.04148 15.5125 4.04714 15.5044L5.32433 13.6869C5.46997 13.4796 5.49897 13.2121 5.40119 12.9785C5.30345 12.7452 5.09247 12.5779 4.84268 12.5364L2.61521 12.1653C2.45533 12.1425 2.33913 12.0052 2.33913 11.8387V9.18602C2.33913 9.01507 2.45799 8.88415 2.65794 8.85642L4.84391 8.48802C5.09468 8.44577 5.30567 8.27728 5.40267 8.04222C5.49967 7.80716 5.46874 7.53871 5.32064 7.33216L4.00514 5.49609C3.91351 5.376 3.92926 5.17433 4.03902 5.06457L5.92213 3.18097C6.02282 3.07338 6.20875 3.06625 6.33696 3.16427C6.34484 3.17018 6.35267 3.17604 6.36079 3.1817L8.17832 4.45889C8.38537 4.60454 8.65283 4.63378 8.88666 4.53575C9.12024 4.43801 9.28726 4.22703 9.32877 3.97724L9.69987 1.74977C9.72272 1.58989 9.86 1.47369 10.0265 1.47369H12.6792C12.8504 1.47369 12.9813 1.5928 13.0093 1.793L13.3777 3.97897C13.4199 4.23047 13.5894 4.4422 13.8254 4.53871C14.0612 4.63497 14.3304 4.60257 14.537 4.45274L16.3444 3.13991C16.464 3.04828 16.666 3.06379 16.776 3.17379L18.6596 5.0569C18.7667 5.15735 18.7743 5.34376 18.6763 5.47173C18.6706 5.47961 18.6645 5.48744 18.6591 5.49556L17.3819 7.31309C17.2362 7.52038 17.2075 7.78784 17.305 8.02143C17.4028 8.25501 17.6138 8.42203 17.8635 8.46353L20.0741 8.83193C20.0797 8.83292 20.0854 8.8339 20.091 8.83464C20.2509 8.85749 20.3671 8.99477 20.3671 9.16129V11.8136H20.3672Z"  />
</g>
<defs>
<clipPath id="clip0">
<rect width="21" height="21"  transform="translate(0.853271)"/>
</clipPath>
</defs>
</svg>

<svg width="22" height="21" viewBox="0 0 22 21" xmlns="http://www.w3.org/2000/svg"><g clip-path="url(#clip0)"><path d="M11.353 6.116a4.377 4.377 0 00-4.372 4.372 4.377 4.377 0 004.372 4.372 4.377 4.377 0 004.372-4.372 4.377 4.377 0 00-4.372-4.372zm0 7.27a2.901 2.901 0 01-2.898-2.898c0-1.598 1.3-2.899 2.898-2.899s2.898 1.3 2.898 2.899c0 1.598-1.3 2.898-2.898 2.898z"/><path d="M20.31 7.378l-1.049-.175.597-.85c.542-.723.46-1.761-.173-2.354l-1.867-1.867c-.638-.638-1.656-.707-2.354-.174l-.83.604-.168-.992A1.794 1.794 0 0012.68 0h-2.653c-.893 0-1.66.663-1.783 1.525L8.068 2.58l-.849-.596c-.724-.543-1.762-.461-2.355.172L2.997 4.023c-.637.637-.707 1.656-.176 2.35l.615.858-1 .169c-.91.124-1.57.875-1.57 1.786v2.653a1.78 1.78 0 001.524 1.782l1.055.176-.596.85c-.543.723-.461 1.761.172 2.354l1.867 1.867c.335.336.815.536 1.283.536.386 0 .76-.128 1.067-.36l.859-.614.168 1c.124.91.875 1.57 1.786 1.57h2.653a1.78 1.78 0 001.782-1.524l.177-1.056.84.591c.327.244.699.368 1.106.368.482 0 .937-.19 1.282-.535l1.867-1.867a1.805 1.805 0 00.17-2.36l-.634-.852.976-.164a1.793 1.793 0 001.571-1.787V9.162c0-.89-.657-1.655-1.532-1.784zm.057 4.436c0 .17-.12.302-.32.33l-2.185.368a.737.737 0 00-.469 1.166l1.357 1.825a.347.347 0 01-.034.432l-1.866 1.867a.323.323 0 01-.24.103.366.366 0 01-.24-.087l-1.818-1.277a.738.738 0 00-1.15.482l-.371 2.227a.324.324 0 01-.327.276H10.05c-.17 0-.302-.119-.33-.319l-.368-2.186a.737.737 0 00-1.155-.476l-1.831 1.311a.327.327 0 01-.196.074.392.392 0 01-.24-.104l-1.885-1.883c-.107-.1-.115-.287-.017-.415a.58.58 0 00.018-.024l1.277-1.817a.737.737 0 00-.481-1.15l-2.228-.372a.324.324 0 01-.276-.326V9.186c0-.17.119-.302.319-.33l2.186-.368a.737.737 0 00.477-1.156L4.005 5.496a.348.348 0 01.034-.431L5.922 3.18c.1-.108.287-.115.415-.017a.846.846 0 00.024.018l1.817 1.277a.736.736 0 001.15-.482L9.7 1.75a.324.324 0 01.327-.276h2.652c.171 0 .302.119.33.319l.369 2.186a.737.737 0 001.159.474l1.807-1.313a.347.347 0 01.432.034l1.884 1.883c.107.1.114.287.016.415l-.017.024-1.277 1.817a.738.738 0 00.481 1.15l2.211.369a.324.324 0 01.293.33v2.652z"/></g><defs><clipPath id="clip0"><path transform="translate(.853)" d="M0 0h21v21H0z"/></clipPath></defs></svg>
